X:67
M:C
L:1/8
K:E_
c|B(GG)F EFGc|BGeG cFFc|B(GG)F EFGf|(gf)ed e2 dc|B(GG)F EFGc|
cafd e2 eg|egeg dfdf|egeg fdBg|agfe dcBA|Ggfd e2 (dc)||

